alura/assets/api/cursos/blender-mapeamento-uv.svg

<svg xmlns="http://www.w3.org/2000/svg" id="Layer_1" x="0" y="0" version="1.1" viewBox="0 0 50 50" xml:space="preserve"><style>.st2{fill:#444}</style><path fill="#7ed0d6" d="M37.4 8.4L34.6 3 23.8 1.5l-6.4.8L7.9 9v10.5L37.7 8.7z"/><path fill="#71bac0" d="M40.8 30.4l.3-2.1-.9-3.6 1.1-3.7.8-7.2-4.4-5.1L7.9 19.5v.4l5.9 4.8.4 5.4 3.8 11 22.1-8z"/><path d="M27.5 38.7l1.2-4.5h.1l7.3.1 1.3 4.5h-.2l-9.7-.1zm1.4-4.3l-1 3.9h9.2l-1.2-3.9h-7z" class="st2"/><path d="M27.9 48.5v-.2l-.3-9.9h9.9l-.1.2-2.8 9.5h-.1l-6.6.4zm0-9.8l.3 9.5 6.2-.4 2.7-9.1h-9.2z" class="st2"/><path d="M27.8 38.9l-7.5-10.8 1-4 8.4-.3-.7 10.5-1.2 4.6zM20.6 28l7 10.2 1-3.9.6-10.1-7.8.2-.8 3.6z" class="st2"/><path d="M28.2 48.5l-9.9-4.3v-.1l-1.4-14 3.6-2.3.1.1 7.3 10.5.3 10.1zM18.6 44l9.3 4-.3-9.5-7.1-10.3-3.2 2L18.6 44zm17.5-9.5l-7.3-.1v-.3l4.7-.7 2.7.1-.1 1zm-5.3-.4h5.1v-.4l-2.4-.1-2.7.5zM37 19.7l-6.7-.5-2.7-11.7 9.7 1-.3 11.2zm-6.5-.7l6.2.4.4-10.7-9-.9L30.5 19z" class="st2"/><path d="M21.1 24.4l2.2-4.2 7.1-1.2 1.9 2.6-2.8 2.5h-.1l-8.3.3zm2.4-3.9L21.6 24l7.8-.2 2.5-2.3-1.6-2.3-6.8 1.3zm13.8 18.2c-.1 0-.1 0-.1-.1l-1.3-4.2.1-.7-1.7-9.8 5.9 1 .9 3.8c0 .1 0 .2-.1.2s-.2 0-.2-.1l-.9-3.6-5.3-.9 1.6 9.4-.1.6 1.2 4.2c.1.1.1.1 0 .2z" class="st2"/><path d="M40.1 25.2l-5.8-1-.5-2.6 3-2.2 4.5 1.8-1.2 4zm-5.5-1.3l5.4.9 1-3.5-4.1-1.7-2.7 2 .4 2.3z" class="st2"/><path d="M41.2 21.5l-4.6-1.9v-.1L37 8.2l5 5.7v.1l-.8 7.5zm-4.2-2l4 1.6.8-7.1-4.4-5-.4 10.5z" class="st2"/><path d="M37.5 8.8l-9.7-1v-.1l-4.6-6.3L34.4 3l3.1 5.8zm-9.6-1.3l9.1.9-2.7-5.2-10.6-1.4 4.2 5.7z" class="st2"/><path d="M23.3 20.5v-.1L20.4 12l7.5-4.5 2.6 11.8-7.2 1.2zm-2.5-8.4l2.8 8.1 6.7-1.2-2.6-11.1-6.9 4.2z" class="st2"/><path d="M20.6 12.2l-7.8-3.5 10.6-7.3L28 7.7l-7.4 4.5zm-7.2-3.5l7.2 3.2 7-4.2-4.2-5.8-10 6.8z" class="st2"/><path d="M21.5 24.4l-8.9-5.3.4-10.6 7.7 3.5v.1l2.9 8.4-2.1 3.9zm-8.7-5.5l8.5 5.1 1.9-3.7-2.8-8.2-7.2-3.2-.4 10z" class="st2"/><path d="M6.8 9.3l10.1-7.1 7-.8-10.7 7.4-6.4.5zM17 2.5L7.9 8.9l5.2-.4 9.7-6.7-5.8.7z" class="st2"/><path d="M7.2 20.4V9l6.1-.5-.5 10.6-5.6 1.3zm.3-11.1V20l5-1.1.4-10-5.4.4z" class="st2"/><path d="M13.3 25.2L7 20.1l5.7-1.3h.1l9 5.4-8.5 1zm-5.6-5l5.7 4.6 7.5-.8-8.2-4.9-5 1.1z" class="st2"/><path d="M17.1 30.4l-4-5.5 8.5-.8-1 4.1-3.5 2.2zm-3.5-5.3l3.5 4.9 3.2-2.1.9-3.6-7.6.8zm22.7 8.7l-2.9-.1v-.1L32 21.4l2.2.1v.1l2.1 12.2zm-2.7-.3l2.3.1-2-11.7-1.6-.1 1.3 11.7zm-11.9-9.6l-4.1-9.1 3.1-2.7 3.2 8.2-2.2 3.6zm-3.7-9l3.7 8.3 1.8-3-3-7.7-2.5 2.4z" class="st2"/><path d="M40.1 35.2c-.1 0-.2 0-.4-.1-.7-.2-1-.9-.8-1.6l.9-3 .2-1.8-.9-3.7 1.2-3.9.7-6.7-4.5-5.2-2.6-4.9-10.2-1.4-6 .7-8.8 6.2v9.8l5.5 4.5c.5.4.6 1.2.2 1.8-.4.5-1.2.6-1.8.2l-6.5-5.2V8.6l10.4-7.3 6.9-.8L35.5 2l3.1 5.9 4.9 5.7-.9 8.1-1 3.4.9 3.6-.3 2.6-.9 3.1c-.2.5-.7.8-1.2.8z" class="st2"/><path d="M28.2 49.6l-10.4-4.5-5-14.5-.4-5.5c0-.7.5-1.3 1.2-1.3s1.3.5 1.3 1.2l.4 5.3 4.5 13 8.8 3.8 5.5-.3 2.1-4.1 1-3.3c.2-.7.9-1 1.6-.8.7.2 1 .9.8 1.6l-1.1 3.6-2.8 5.5-7.5.3z" class="st2"/></svg>

<?xml version="1.0" encoding="utf-8"?>
<!-- Generator: Adobe Illustrator 22.1.0, SVG Export Plug-In . SVG Version: 6.00 Build 0)  -->
<svg version="1.1" id="Layer_1" xmlns="http://www.w3.org/2000/svg" xmlns:xlink="http://www.w3.org/1999/xlink" x="0px" y="0px"
	 viewBox="0 0 50 50" style="enable-background:new 0 0 50 50;" xml:space="preserve">
<style type="text/css">
	.st0{fill:#7ED0D6;}
	.st1{fill:#71BAC0;}
	.st2{fill:#444444;}
</style>
<g>
	<g>
		<polygon class="st0" points="37.4,8.4 34.6,3 23.8,1.5 17.4,2.3 7.9,9 7.9,19.5 37.7,8.7 		"/>
	</g>
	<g>
		<polygon class="st1" points="40.8,30.4 41.1,28.3 40.2,24.7 41.3,21 42.1,13.8 37.7,8.7 7.9,19.5 7.9,19.9 13.8,24.7 14.2,30.1 
			18,41.1 40.1,33.1 		"/>
	</g>
	<g>
		<path class="st2" d="M27.5,38.7l1.2-4.5h0.1l7.3,0.1l1.3,4.5l-0.2,0L27.5,38.7z M28.9,34.4l-1,3.9l9.2,0l-1.2-3.9L28.9,34.4z"/>
	</g>
	<g>
		<path class="st2" d="M27.9,48.5l0-0.2l-0.3-9.9l0.2,0l9.7,0l-0.1,0.2l-2.8,9.5l-0.1,0L27.9,48.5z M27.9,38.7l0.3,9.5l6.2-0.4
			l2.7-9.1L27.9,38.7z"/>
	</g>
	<g>
		<path class="st2" d="M27.8,38.9l-7.5-10.8l1-4l8.4-0.3L29,34.3L27.8,38.9z M20.6,28l7,10.2l1-3.9l0.6-10.1l-7.8,0.2L20.6,28z"/>
	</g>
	<g>
		<path class="st2" d="M28.2,48.5l-9.9-4.3l0-0.1l-1.4-14l3.6-2.3l0.1,0.1l7.3,10.5l0,0L28.2,48.5z M18.6,44l9.3,4l-0.3-9.5
			l-7.1-10.3l-3.2,2L18.6,44z"/>
	</g>
	<g>
		<path class="st2" d="M36.1,34.5l-7.3-0.1l0-0.3l4.7-0.7l2.7,0.1L36.1,34.5z M30.8,34.1l5.1,0l0-0.4l-2.4-0.1L30.8,34.1z"/>
	</g>
	<g>
		<path class="st2" d="M37,19.7l-6.7-0.5L27.6,7.5l9.7,1L37,19.7z M30.5,19l6.2,0.4l0.4-10.7l-9-0.9L30.5,19z"/>
	</g>
	<g>
		<path class="st2" d="M21.1,24.4l2.2-4.2l7.1-1.2l1.9,2.6l-2.8,2.5l-0.1,0L21.1,24.4z M23.5,20.5L21.6,24l7.8-0.2l2.5-2.3l-1.6-2.3
			L23.5,20.5z"/>
	</g>
	<g>
		<path class="st2" d="M37.3,38.7c-0.1,0-0.1,0-0.1-0.1l-1.3-4.2l0.1-0.7l-1.7-9.8l5.9,1l0.9,3.8c0,0.1,0,0.2-0.1,0.2
			c-0.1,0-0.2,0-0.2-0.1l-0.9-3.6l-5.3-0.9l1.6,9.4l-0.1,0.6l1.2,4.2C37.4,38.6,37.4,38.6,37.3,38.7C37.3,38.7,37.3,38.7,37.3,38.7z
			"/>
	</g>
	<g>
		<path class="st2" d="M40.1,25.2l-5.8-1l-0.5-2.6l3-2.2l4.5,1.8L40.1,25.2z M34.6,23.9l5.4,0.9l1-3.5l-4.1-1.7l-2.7,2L34.6,23.9z"
			/>
	</g>
	<g>
		<path class="st2" d="M41.2,21.5l-4.6-1.9l0-0.1l0.4-11.3l5,5.7l0,0.1L41.2,21.5z M37,19.5l4,1.6l0.8-7.1L37.4,9L37,19.5z"/>
	</g>
	<g>
		<path class="st2" d="M37.5,8.8l-9.7-1l0-0.1l-4.6-6.3L34.4,3L37.5,8.8z M27.9,7.5L37,8.4l-2.7-5.2L23.7,1.8L27.9,7.5z"/>
	</g>
	<g>
		<path class="st2" d="M23.3,20.5l0-0.1L20.4,12l7.5-4.5l2.6,11.8L23.3,20.5z M20.8,12.1l2.8,8.1l6.7-1.2L27.7,7.9L20.8,12.1z"/>
	</g>
	<g>
		<path class="st2" d="M20.6,12.2l-7.8-3.5l10.6-7.3L28,7.7L20.6,12.2z M13.4,8.7l7.2,3.2l7-4.2l-4.2-5.8L13.4,8.7z"/>
	</g>
	<g>
		<path class="st2" d="M21.5,24.4l-8.9-5.3L13,8.5l7.7,3.5l0,0.1l2.9,8.4L21.5,24.4z M12.8,18.9l8.5,5.1l1.9-3.7l-2.8-8.2l-7.2-3.2
			L12.8,18.9z"/>
	</g>
	<g>
		<path class="st2" d="M6.8,9.3l10.1-7.1l7-0.8L13.2,8.8l0,0L6.8,9.3z M17,2.5L7.9,8.9l5.2-0.4l9.7-6.7L17,2.5z"/>
	</g>
	<g>
		<path class="st2" d="M7.2,20.4L7.2,9l6.1-0.5l-0.5,10.6L7.2,20.4z M7.5,9.3l0,10.7l5-1.1l0.4-10L7.5,9.3z"/>
	</g>
	<g>
		<path class="st2" d="M13.3,25.2L7,20.1l5.7-1.3l0.1,0l9,5.4L13.3,25.2z M7.7,20.2l5.7,4.6l7.5-0.8l-8.2-4.9L7.7,20.2z"/>
	</g>
	<g>
		<path class="st2" d="M17.1,30.4l-4-5.5l8.5-0.8l-1,4.1L17.1,30.4z M13.6,25.1l3.5,4.9l3.2-2.1l0.9-3.6L13.6,25.1z"/>
	</g>
	<g>
		<path class="st2" d="M36.3,33.8l-2.9-0.1l0-0.1l-1.4-12.2l2.2,0.1l0,0.1L36.3,33.8z M33.6,33.5l2.3,0.1l-2-11.7l-1.6-0.1
			L33.6,33.5z"/>
	</g>
	<g>
		<path class="st2" d="M21.7,23.9l-4.1-9.1l3.1-2.7l3.2,8.2L21.7,23.9z M18,14.9l3.7,8.3l1.8-3l-3-7.7L18,14.9z"/>
	</g>
	<g>
		<path class="st2" d="M40.1,35.2c-0.1,0-0.2,0-0.4-0.1c-0.7-0.2-1-0.9-0.8-1.6l0.9-3l0.2-1.8L39.1,25l1.2-3.9l0.7-6.7l-4.5-5.2
			l-2.6-4.9L23.7,2.9l-6,0.7L8.9,9.8l0,9.8l5.5,4.5c0.5,0.4,0.6,1.2,0.2,1.8c-0.4,0.5-1.2,0.6-1.8,0.2l-6.5-5.2l0-12.3l10.4-7.3
			l6.9-0.8L35.5,2l3.1,5.9l4.9,5.7l-0.9,8.1l-1,3.4l0.9,3.6l-0.3,2.6l-0.9,3.1C41.1,34.9,40.6,35.2,40.1,35.2z"/>
	</g>
	<g>
		<path class="st2" d="M28.2,49.6l-10.4-4.5l-5-14.5l-0.4-5.5c0-0.7,0.5-1.3,1.2-1.3c0.7,0,1.3,0.5,1.3,1.2l0.4,5.3l4.5,13l8.8,3.8
			l5.5-0.3l2.1-4.1l1-3.3c0.2-0.7,0.9-1,1.6-0.8c0.7,0.2,1,0.9,0.8,1.6l-1.1,3.6l-2.8,5.5L28.2,49.6z"/>
	</g>
</g>
</svg>
